X:03
T:Lady Montgomery. Dix.03
M:C
L:1/8
Q:1/4=120
S:Anon. MS dated 1811, from Dixon collection, Holton le Moor, Lincs.
R:Reel
C:’A Reel’ by 12th Earl of Eglintoun (Col. Hugh Montgomerie)
N:Repeat mark added at start
O:England;Lincolnshire;Holton le Moor
Z:vmp.R.Greig 2010 <http://www.village-music-project.org.uk>
K:C
|:c2cG EFGE|c2cA Bcde|c2cA EFGE|Dddd Bcde:|!
|:c/c/c g2ecg2|c/c/c ge dfga|c/c/cg2ecg2|fedc Bdde|!
c/c/cg2ecg2″^bar line added”|c/c/cge dfga|gefd ecdB|cAGE DddB:|

